src/actions/24/draw-cross.svg

<svg xmlns="http://www.w3.org/2000/svg" viewBox="0 0 24 24">
    <path d="M10 4v6H4v4h6v6h4v-6h6v-4h-6V4h-4zm1 1h2v6h6v2h-6v6h-2v-6H5v-2h6V5z" style="fill:currentColor;fill-opacity:1;stroke:none;color:#050505;opacity:.7"/>
</svg>

<svg xmlns="http://www.w3.org/2000/svg" viewBox="0 0 24 24">
  <defs id="defs3051">
    <style type="text/css" id="current-color-scheme">
      .ColorScheme-Text {
        color:#363636;
      }
      </style>
  </defs>
 <path style="fill:currentColor;fill-opacity:1;stroke:none" 
     d="M 10 4 L 10 5 L 10 10 L 5 10 L 4 10 L 4 14 L 5 14 L 10 14 L 10 19 L 10 20 L 14 20 L 14 19 L 14 14 L 20 14 L 20 13 L 20 11 L 20 10 L 19 10 L 14 10 L 14 5 L 14 4 L 10 4 z M 11 5 L 13 5 L 13 10 L 13 11 L 14 11 L 19 11 L 19 13 L 14 13 L 13 13 L 13 19 L 11 19 L 11 13 L 5 13 L 5 11 L 11 11 L 11 10 L 11 5 z "
     class="ColorScheme-Text"
     />
</svg>
